package/converter/svg/regular/message-middle-top.svg

<svg xmlns="http://www.w3.org/2000/svg" viewBox="0 0 512 512"><!-- Font Awesome Pro 6.0.0-alpha2 by @fontawesome - https://fontawesome.com License - https://fontawesome.com/license (Commercial License) --><path d="M448 96.033H336.025L268.801 6.4C265.6 2.133 260.801 0 256 0S246.4 2.133 243.199 6.4L175.975 96.033H64C28.75 96.033 0 124.781 0 160.029V448.006C0 483.252 28.75 512 64 512H448C483.25 512 512 483.252 512 448.006V160.029C512 124.781 483.25 96.033 448 96.033ZM464 448.006C464 456.676 456.674 464 448 464H64C55.326 464 48 456.676 48 448.006V160.029C48 151.359 55.326 144.033 64 144.033H199.975L256 69.332L312.025 144.033H448C456.674 144.033 464 151.359 464 160.029V448.006Z "></path></svg>

<svg xmlns="http://www.w3.org/2000/svg" viewBox="0 0 512 512"><!--! Font Awesome Pro 6.6.0 by @fontawesome - https://fontawesome.com License - https://fontawesome.com/license (Commercial License) Copyright 2024 Fonticons, Inc. --><path d="M343.5 144L448 144c8.8 0 16 7.2 16 16l0 288c0 8.8-7.2 16-16 16L64 464c-8.8 0-16-7.2-16-16l0-288c0-8.8 7.2-16 16-16l104.5 0c14.2 0 27.8-6.3 36.9-17.3L256 66l50.6 60.7c9.1 10.9 22.6 17.3 36.9 17.3zm-175-48L64 96C28.7 96 0 124.7 0 160L0 448c0 35.3 28.7 64 64 64l384 0c35.3 0 64-28.7 64-64l0-288c0-35.3-28.7-64-64-64L343.5 96 268.3 5.8C265.3 2.1 260.7 0 256 0s-9.3 2.1-12.3 5.8L168.5 96z"/></svg>
